!!!OTL: Maduna
!!!XEN: Maduna Clan
!!!CNT: African -- sub-Saharan -- Xhosa
**kern
*k[f#]
*M4/4
*MM126
=1
4g
8g
[8b
8b]
8g
4g
=2
4a
8e
[8a
4a]
8g
8g
=3
4f#
8d
[8g
8g]
8d
8d
8g
=4
4d
2g
4r
!! Repeat from the beginning.
=5
4g
8g
[8b
8b]
8g
4g
=6
4a
8e
[8a
4a]
8g
8g
=7
4f#
8d
[8g
8g]
8d
8d
8g
=8
4d
2g
4r
!! Continuing.
=9
[2dd
8dd]
8ee
4dd
=10
4.dd
8cc
8b
8b
4cc
=11
4.dd
8b
8cc
8g
8g
8g
=12
8a
[8d
4d]
2r
=13
4r
4.dd
8ee
4dd
=14
4.dd
8cc
8b
8b
4cc
=15
4.dd
8b
8cc
8g
8g
8g
=16
8a
[8d
4d]
4r
8b
8cc
=17
4dd
8g
4b
8g
4g
=18
4a
8e
4a
8g
4g
=19
4f#
8d
[8g
8g]
8d
8d
8g
=20
4d
2g
4r
=21
4g
8g
4b
8g
4g
=22
4a
8e
4a
8g
4g
=23
4f#
8d
[8g
8g]
8d
8d
8g
=24
4d
2g
4r
!! Continuing
=25
4r
8ffn
8ff
8ff
8dd
4dd
=26
4.dd
8cc
8b
8b
4cc
=27
4.dd
8b
8cc
8g
8g
8g
=28
8g
[8d
4d]
2r
!! Repeating.
=29
4r
8ffn
8ff
8ff
8dd
4dd
=30
4.dd
8cc
8b
8b
4cc
=31
4.dd
8b
8cc
8g
8g
8g
=32
8g
[8d
4d]
2r
!! Continuing.
=33
2r
4r
8r
8gg
=34
2.gg
8r
8ffn
=35
4.ffn
8dd
4dd
8cc
8a
=36
4b
4dd
4g
4r
!! Repeating.
=37
2r
4r
8r
8gg
=38
2.gg
8r
8ffn
=39
4.ffn
8dd
4dd
8cc
8a
=40
4b
4dd
4g
4r
!! Continuing.
=41
4dd
8ffn
[8ee
8ee]
8ff
8ee
8cc
=42
4dd
4cc
4a
4r
=43
4dd
8ffn
[8ee
8ee]
8ff
8ee
8cc
=44
4dd
4b
4g
4r
!! Repeating.
=45
4dd
8ffn
[8ee
8ee]
8ff
8ee
8cc
=46
4dd
4cc
4a
4r
=47
4dd
8ffn
[8ee
8ee]
8ff
8ee
8cc
=48
4dd
4b
4g
4r
!! Continuing.
=49
4b
4a#
4b
4r
=50
4r
4e;
2g;
=51
8d
8d
8d
8d
8g
4.d
2.d
4r
!! Da Capo al Segno.
=52
4g
8g
[8b
8b]
8g
4g
=53
4a
8e
[8a
4a]
8g
8g
=54
4f#
8d
[8g
8g]
8d
8d
8g
=55
4d
2g
4r
!! Repeat from the beginning.
=56
4g
8g
[8b
8b]
8g
4g
=57
4a
8e
[8a
4a]
8g
8g
=58
4f#
8d
[8g
8g]
8d
8d
8g
=59
4d
2g
4r
!! Continuing.
=60
[2dd
8dd]
8ee
4dd
=61
4.dd
8cc
8b
8b
4cc
=62
4.dd
8b
8cc
8g
8g
8g
=63
8a
[8d
4d]
2r
=64
4r
4.dd
8ee
4dd
=65
4.dd
8cc
8b
8b
4cc
=66
4.dd
8b
8cc
8g
8g
8g
=67
8a
[8d
4d]
4r
8b
8cc
=68
4dd
8g
4b
8g
4g
=69
4a
8e
4a
8g
4g
=70
4f#
8d
[8g
8g]
8d
8d
8g
=71
4d
2g
4r
=72
4g
8g
4b
8g
4g
=73
4a
8e
4a
8g
4g
=74
4f#
8d
[8g
8g]
8d
8d
8g
=75
4d
2g
4r
!! To Coda
!! Coda
=76
4dd
4cc#
4dd
4r
=77
4r
4a;
[2ccn
=78
8cc]
8a
8dd
8dd
8dd
8ee
[4dd
=79
4dd]
4r
2r
==
*-
!!!OPR: Miriam Makeba, "The World of African Song"
!!!PPP: Chicago
!!!PPR: Quadrangle Press (12 East Delaware Place)
!!!PDT: 1971///
!!!PPG: 73
!!!ENC: David Huron
!!!EMD: 1998/9/29/ Paul von Hippel updated this file in the following ways:
!!!EMD:  (1) changed the representation of slurs from curly braces to parentheses 
!!!EMD:  (2) changed freeform comments into reference records and tandem interpretations
!!!EMD:  (3) changed final barline from triple (===) to double (==)
!!!EMD:  (4) added key signature from printed source
!!!EEV: Version 2.0
